svg/education/test_tube_line.svg

<svg xmlns="http://www.w3.org/2000/svg" width="24" height="24" viewBox="0 0 24 24"><g fill="none" fill-rule="evenodd"><path d="M24,0 L24,24 L0,24 L0,0 L24,0 Z M12.5935,23.2578 L12.5819,23.2595 L12.5109,23.295 L12.4919,23.2987 L12.4767,23.295 L12.4057,23.2595 C12.3958,23.2564 12.387,23.259 12.3821,23.2649 L12.378,23.2758 L12.3609,23.7031 L12.3659,23.7235 L12.3769,23.7357 L12.4805,23.8097 L12.4953,23.8136 L12.5071,23.8097 L12.6107,23.7357 L12.6233,23.7197 L12.6267,23.7031 L12.6096,23.2758 C12.6076,23.2657 12.601,23.2593 12.5935,23.2578 Z M12.8584,23.1453 L12.8445,23.1473 L12.6598,23.2397 L12.6499,23.2499 L12.6472,23.2611 L12.6651,23.6906 L12.6699,23.7034 L12.6784,23.7105 L12.8793,23.8032 C12.8914,23.8069 12.9022,23.803 12.9078,23.7952 L12.9118,23.7812 L12.8777,23.1665 C12.8753,23.1546 12.8674,23.147 12.8584,23.1453 Z M12.143,23.1473 C12.1332,23.1424 12.1222,23.1453 12.1156,23.1526 L12.1099,23.1665 L12.0758,23.7812 C12.0751,23.7927 12.0828,23.8019 12.0926,23.8046 L12.1083,23.8032 L12.3092,23.7105 L12.3186,23.7024 L12.3225,23.6906 L12.3404,23.2611 L12.3372,23.2485 L12.3278,23.2397 L12.143,23.1473 Z"/><path fill="#09244B" d="M7,3 C7,2.44772 7.44772,2 8,2 L16,2 C16.5523,2 17,2.44772 17,3 C17,3.55228 16.5523,4 16,4 L16,18 C16,20.2091 14.2091,22 12,22 C9.79086,22 8,20.2091 8,18 L8,4 C7.44772,4 7,3.55228 7,3 Z M14,15 L13,15 C12.4477,15 12,15.4477 12,16 C12,16.5523 12.4477,17 13,17 L14,17 L14,18 C14,19.1046 13.1046,20 12,20 C10.8954,20 10,19.1046 10,18 L10,4 L14,4 L14,7 L13,7 C12.4477,7 12,7.44772 12,8 C12,8.55228 12.4477,9 13,9 L14,9 L14,11 L13,11 C12.4477,11 12,11.4477 12,12 C12,12.5523 12.4477,13 13,13 L14,13 L14,15 Z"/></g></svg>

<svg xmlns="http://www.w3.org/2000/svg" width="24" height="24"><g fill="none" fill-rule="evenodd"><path d="M24 0v24H0V0zM12.594 23.258l-.012.002-.071.035-.02.004-.014-.004-.071-.036c-.01-.003-.019 0-.024.006l-.004.01-.017.428.005.02.01.013.104.074.015.004.012-.004.104-.074.012-.016.004-.017-.017-.427c-.002-.01-.009-.017-.016-.018m.264-.113-.014.002-.184.093-.01.01-.003.011.018.43.005.012.008.008.201.092c.012.004.023 0 .029-.008l.004-.014-.034-.614c-.003-.012-.01-.02-.02-.022m-.715.002a.023.023 0 0 0-.027.006l-.006.014-.034.614c0 .012.007.02.017.024l.015-.002.201-.093.01-.008.003-.011.018-.43-.003-.012-.01-.01z"/><path fill="#09244B" d="M7 3a1 1 0 0 1 1-1h8a1 1 0 1 1 0 2v14a4 4 0 0 1-8 0V4a1 1 0 0 1-1-1m7 12h-1a1 1 0 1 0 0 2h1v1a2 2 0 1 1-4 0V4h4v3h-1a1 1 0 1 0 0 2h1v2h-1a1 1 0 1 0 0 2h1z"/></g></svg>
